z-union/img/icons/tab-icons/tab-icon-12.svg

<svg width="55" height="55" viewBox="0 0 55 55" fill="none" xmlns="http://www.w3.org/2000/svg">
<path d="M49.5382 25.4092H4.46802V27.5897H49.5382V25.4092Z" fill="#232322"/>
<path d="M28.1036 4.4668H25.9231V49.5576H28.1036V4.4668Z" fill="#975295"/>
<path d="M38.2449 50.6493H15.8023C8.95232 50.6493 3.37769 45.0746 3.37769 38.2246V15.7821C3.37769 8.93206 8.95232 3.35742 15.8023 3.35742H38.2449C45.0949 3.35742 50.6695 8.93206 50.6695 15.7821V38.2246C50.6695 45.0746 45.0949 50.6493 38.2449 50.6493ZM15.8023 5.55848C10.166 5.55848 5.55817 10.1457 5.55817 15.8026V38.2452C5.55817 43.8815 10.1454 48.4893 15.8023 48.4893H38.2449C43.8812 48.4893 48.489 43.9021 48.489 38.2452V15.8026C48.489 10.1663 43.9018 5.55848 38.2449 5.55848H15.8023Z" fill="#232322"/>
<path d="M27.0132 52.9327C28.8764 52.9327 30.3868 51.4223 30.3868 49.5591C30.3868 47.6959 28.8764 46.1855 27.0132 46.1855C25.1501 46.1855 23.6396 47.6959 23.6396 49.5591C23.6396 51.4223 25.1501 52.9327 27.0132 52.9327Z" fill="#151514"/>
<path d="M27.013 54.0222C26.9513 54.0222 26.9102 54.0222 26.8485 54.0222C25.6554 53.9811 24.5445 53.4668 23.7423 52.6029C22.9195 51.7389 22.5081 50.587 22.5492 49.3939C22.5903 48.2008 23.1046 47.0899 23.9686 46.2877C24.8325 45.4648 25.9639 45.0535 27.1776 45.0946C28.3707 45.1357 29.4815 45.65 30.2837 46.514C31.086 47.3779 31.518 48.5299 31.4768 49.723C31.3946 52.1298 29.4198 54.0222 27.013 54.0222ZM27.013 47.2751C26.437 47.2751 25.8816 47.4808 25.4497 47.8922C24.9971 48.3036 24.7503 48.8796 24.7297 49.4761C24.6885 50.7309 25.6759 51.8006 26.9307 51.8418C28.1855 51.9035 29.2552 50.8955 29.2964 49.6407C29.3169 49.0236 29.1112 48.4476 28.6792 47.995C28.2678 47.5425 27.6918 47.2957 27.0953 47.2751C27.0747 47.2751 27.0542 47.2751 27.013 47.2751Z" fill="#975295"/>
<path d="M27.0132 29.8731C28.8764 29.8731 30.3868 28.3627 30.3868 26.4996C30.3868 24.6364 28.8764 23.126 27.0132 23.126C25.1501 23.126 23.6396 24.6364 23.6396 26.4996C23.6396 28.3627 25.1501 29.8731 27.0132 29.8731Z" fill="#151514"/>
<path d="M27.0131 30.9627C26.9514 30.9627 26.9103 30.9627 26.8486 30.9627C25.6555 30.9216 24.5447 30.4073 23.7424 29.5434C22.9402 28.6794 22.5082 27.5275 22.5493 26.3344C22.5905 25.1413 23.1047 24.0305 23.9687 23.2282C24.8327 22.4054 25.964 21.9734 27.1777 22.0351C28.3708 22.0762 29.4816 22.5905 30.2839 23.4545C31.0861 24.3185 31.5181 25.4704 31.477 26.6635C31.3947 29.0703 29.4199 30.9627 27.0131 30.9627ZM27.0131 24.2156C26.4372 24.2156 25.8818 24.4213 25.4498 24.8327C24.9972 25.2441 24.7504 25.8201 24.7298 26.4166C24.6887 27.6714 25.6761 28.7411 26.9309 28.7823C28.1857 28.8234 29.2553 27.836 29.2965 26.5812C29.3171 25.9641 29.1113 25.3881 28.6794 24.9356C28.268 24.483 27.692 24.2362 27.0954 24.2156C27.0749 24.2156 27.0543 24.2156 27.0131 24.2156Z" fill="#975295"/>
<path d="M49.5791 42.1114C51.4423 42.1114 52.9527 40.601 52.9527 38.7378C52.9527 36.8747 51.4423 35.3643 49.5791 35.3643C47.716 35.3643 46.2056 36.8747 46.2056 38.7378C46.2056 40.601 47.716 42.1114 49.5791 42.1114Z" fill="#151514"/>
<path d="M49.5793 43.2001C49.5176 43.2001 49.4765 43.2001 49.4147 43.2001C48.2216 43.159 47.1108 42.6447 46.3086 41.7808C45.5063 40.8962 45.0743 39.7648 45.1155 38.5717C45.1978 36.1033 47.2754 34.1696 49.7439 34.2725C52.2123 34.3548 54.146 36.4324 54.0431 38.9009C54.002 40.094 53.4877 41.2048 52.6238 42.007C51.7804 42.7887 50.7107 43.2001 49.5793 43.2001ZM49.5793 36.453C48.3656 36.453 47.3371 37.4198 47.296 38.654C47.2754 39.2711 47.4811 39.8471 47.9131 40.2997C48.3245 40.7522 48.9005 40.9991 49.497 41.0196C50.0936 41.0608 50.6901 40.8345 51.1427 40.4025C51.5952 39.9911 51.8421 39.4151 51.8626 38.8186C51.9038 37.5638 50.9164 36.4941 49.6616 36.453C49.6204 36.453 49.5999 36.453 49.5793 36.453Z" fill="#232322"/>
<path d="M4.46806 42.1114C6.33124 42.1114 7.84164 40.601 7.84164 38.7378C7.84164 36.8747 6.33124 35.3643 4.46806 35.3643C2.60489 35.3643 1.09448 36.8747 1.09448 38.7378C1.09448 40.601 2.60489 42.1114 4.46806 42.1114Z" fill="#151514"/>
<path d="M4.46785 43.2001C4.40614 43.2001 4.365 43.2001 4.30329 43.2001C3.11019 43.159 1.99938 42.6447 1.19713 41.7808C0.374301 40.8962 -0.0371116 39.7648 0.00402966 38.5717C0.0863121 36.1033 2.16394 34.1696 4.63242 34.2725C5.82551 34.3136 6.93633 34.8279 7.73858 35.6919C8.5614 36.5558 8.97282 37.7078 8.93167 38.9009C8.89053 40.094 8.37627 41.2048 7.5123 42.007C6.68948 42.7887 5.59924 43.2001 4.46785 43.2001ZM2.18451 38.654C2.16394 39.2711 2.36965 39.8471 2.80163 40.2997C3.21304 40.7522 3.78902 40.9991 4.38557 41.0196C4.98212 41.0402 5.57866 40.8345 6.03122 40.4025C6.48377 39.9911 6.73062 39.4151 6.75119 38.8186C6.79233 37.5638 5.80494 36.4941 4.55013 36.453C3.29533 36.4118 2.22566 37.3992 2.18451 38.654Z" fill="#232322"/>
<path fill-rule="evenodd" clip-rule="evenodd" d="M15.8021 3.35645C8.95208 3.35645 3.37744 8.93108 3.37744 15.7811C3.37744 15.9377 3.38788 16.0926 3.40844 16.2456H5.64903C5.58885 16.0987 5.55793 15.9506 5.55793 15.8017C5.55793 10.1448 10.1657 5.5575 15.8021 5.5575H38.2446C43.9015 5.5575 48.4888 10.1653 48.4888 15.8017C48.4888 15.953 48.4788 16.1009 48.459 16.2456H50.649C50.6624 16.093 50.6693 15.9382 50.6693 15.7811C50.6693 8.93108 45.0946 3.35645 38.2446 3.35645H15.8021Z" fill="#975295"/>
<path d="M49.4888 18.9835C51.352 18.9835 52.8624 17.4731 52.8624 15.6099C52.8624 13.7467 51.352 12.2363 49.4888 12.2363C47.6256 12.2363 46.1152 13.7467 46.1152 15.6099C46.1152 17.4731 47.6256 18.9835 49.4888 18.9835Z" fill="#151514"/>
<path d="M49.4888 20.0731C49.4271 20.0731 49.386 20.0731 49.3243 20.0731C48.1312 20.032 47.0204 19.5177 46.2181 18.6537C45.3953 17.7692 44.9839 16.6378 45.025 15.4447C45.0662 14.2516 45.5804 13.1408 46.4444 12.3386C47.3084 11.5157 48.4397 11.0837 49.6534 11.1455C52.1219 11.2277 54.0555 13.3054 53.9527 15.7738C53.9115 16.9669 53.3973 18.0778 52.5333 18.88C51.6899 19.6617 50.6202 20.0731 49.4888 20.0731ZM49.4683 13.3259C48.8923 13.3259 48.3369 13.5317 47.9049 13.9431C47.4524 14.3545 47.2055 14.9304 47.1849 15.527C47.1644 16.1441 47.3701 16.7201 47.8021 17.1726C48.2135 17.6252 48.7894 17.872 49.386 17.8926C49.9825 17.9132 50.5791 17.7075 51.0316 17.2755C51.4842 16.8641 51.731 16.2881 51.7516 15.6916C51.7928 14.4368 50.8054 13.3671 49.5506 13.3259C49.53 13.3259 49.5094 13.3259 49.4683 13.3259Z" fill="#975295"/>
<path d="M4.46684 18.9835C6.33002 18.9835 7.84042 17.4731 7.84042 15.6099C7.84042 13.7467 6.33002 12.2363 4.46684 12.2363C2.60367 12.2363 1.09326 13.7467 1.09326 15.6099C1.09326 17.4731 2.60367 18.9835 4.46684 18.9835Z" fill="#151514"/>
<path d="M4.46663 20.0731C4.40492 20.0731 4.36378 20.0731 4.30207 20.0731C3.10897 20.032 1.99816 19.5177 1.1959 18.6537C0.37308 17.7692 -0.0383323 16.6378 0.00280896 15.4447C0.0439502 14.2516 0.558217 13.1408 1.42218 12.3386C2.28615 11.5157 3.41753 11.0837 4.6312 11.1455C7.09967 11.2277 9.03331 13.3054 8.93045 15.7738C8.88931 16.9669 8.37505 18.0778 7.51108 18.88C6.66769 19.6617 5.59801 20.0731 4.46663 20.0731ZM4.44606 13.3259C3.87008 13.3259 3.31468 13.5317 2.88269 13.9431C2.43014 14.3545 2.18329 14.9304 2.16272 15.527C2.14215 16.1441 2.34786 16.7201 2.77984 17.1726C3.19125 17.6252 3.76723 17.872 4.36378 17.8926C4.96032 17.9132 5.55687 17.7075 6.00943 17.2755C6.46198 16.8641 6.70883 16.2881 6.7294 15.6916C6.77054 14.4368 5.78315 13.3671 4.52834 13.3259C4.50777 13.3259 4.4872 13.3259 4.44606 13.3259Z" fill="#975295"/>
<path d="M27.2098 7.84481C29.0729 7.84481 30.5833 6.33441 30.5833 4.47124C30.5833 2.60806 29.0729 1.09766 27.2098 1.09766C25.3466 1.09766 23.8362 2.60806 23.8362 4.47124C23.8362 6.33441 25.3466 7.84481 27.2098 7.84481Z" fill="#151514"/>
<path d="M27.2098 8.93346C27.1481 8.93346 27.1069 8.93346 27.0452 8.93346C25.8521 8.89232 24.7413 8.37805 23.9391 7.51409C23.1162 6.62955 22.7048 5.49817 22.746 4.30508C22.7871 3.11198 23.3014 2.00116 24.1653 1.19891C25.0293 0.376085 26.1607 -0.055901 27.3744 0.0058108C29.8428 0.0880932 31.7765 2.16572 31.6736 4.6342C31.6325 5.82729 31.1182 6.93811 30.2542 7.74036C29.4108 8.52205 28.3412 8.93346 27.2098 8.93346ZM27.1892 2.18629C26.6132 2.18629 26.0578 2.392 25.6259 2.80341C25.1733 3.21483 24.9265 3.7908 24.9059 4.38734C24.8853 5.00446 25.091 5.58045 25.523 6.033C25.9344 6.48555 26.5104 6.7324 27.1069 6.75297C27.7035 6.77354 28.3 6.56784 28.7526 6.13586C29.2051 5.72445 29.452 5.14846 29.4726 4.55191C29.5137 3.29711 28.5263 2.22743 27.2715 2.18629C27.2509 2.18629 27.2304 2.18629 27.1892 2.18629Z" fill="#975295"/>
</svg>

<svg width="55" height="55" fill="none" xmlns="http://www.w3.org/2000/svg"><path d="M49.538 25.41H4.468v2.18h45.07v-2.18z" fill="#232322"/><path d="M28.104 4.467h-2.18v45.09h2.18V4.468z" fill="#975295"/><path d="M38.245 50.65H15.802c-6.85 0-12.424-5.575-12.424-12.425V15.782c0-6.85 5.574-12.425 12.424-12.425h22.443c6.85 0 12.425 5.575 12.425 12.425v22.443c0 6.85-5.575 12.424-12.425 12.424zM15.802 5.557c-5.636 0-10.244 4.588-10.244 10.245v22.442c0 5.637 4.587 10.244 10.244 10.244h22.443c5.636 0 10.244-4.587 10.244-10.244V15.803c0-5.637-4.587-10.245-10.244-10.245H15.802z" fill="#232322"/><path d="M27.013 52.933a3.374 3.374 0 100-6.747 3.374 3.374 0 000 6.747z" fill="#151514"/><path d="M27.013 54.022h-.165a4.439 4.439 0 01-3.106-1.42c-.823-.863-1.234-2.015-1.193-3.208a4.439 4.439 0 011.42-3.106c.863-.823 1.995-1.234 3.209-1.193a4.438 4.438 0 013.106 1.419 4.485 4.485 0 011.193 3.209 4.454 4.454 0 01-4.464 4.3zm0-6.747c-.576 0-1.131.206-1.563.617-.453.412-.7.988-.72 1.584-.041 1.255.946 2.325 2.2 2.366 1.256.062 2.325-.947 2.366-2.201a2.23 2.23 0 00-.617-1.646 2.236 2.236 0 00-1.584-.72h-.082z" fill="#975295"/><path d="M27.013 29.873a3.374 3.374 0 100-6.747 3.374 3.374 0 000 6.747z" fill="#151514"/><path d="M27.013 30.963h-.164a4.44 4.44 0 01-3.107-1.42 4.486 4.486 0 01-1.193-3.209 4.44 4.44 0 011.42-3.106 4.287 4.287 0 013.209-1.193 4.439 4.439 0 013.106 1.42 4.486 4.486 0 011.193 3.209 4.454 4.454 0 01-4.464 4.299zm0-6.747a2.24 2.24 0 00-1.563.617 2.23 2.23 0 00-.72 1.584c-.041 1.254.946 2.324 2.2 2.365 1.256.041 2.325-.946 2.367-2.2a2.229 2.229 0 00-.618-1.646 2.236 2.236 0 00-1.584-.72h-.082z" fill="#975295"/><path d="M49.58 42.111a3.374 3.374 0 100-6.747 3.374 3.374 0 000 6.747z" fill="#151514"/><path d="M49.58 43.2h-.165a4.439 4.439 0 01-3.106-1.42 4.519 4.519 0 01-1.194-3.208 4.45 4.45 0 014.629-4.3 4.45 4.45 0 014.3 4.629 4.439 4.439 0 01-1.42 3.106 4.435 4.435 0 01-3.045 1.193zm0-6.747a2.289 2.289 0 00-2.284 2.201c-.02.617.185 1.193.617 1.646.412.452.988.7 1.584.72a2.178 2.178 0 001.646-.617c.452-.412.7-.988.72-1.584.04-1.255-.947-2.325-2.201-2.366h-.083z" fill="#232322"/><path d="M4.468 42.111a3.374 3.374 0 100-6.747 3.374 3.374 0 000 6.747z" fill="#151514"/><path d="M4.468 43.2h-.165a4.439 4.439 0 01-3.106-1.42 4.431 4.431 0 01-1.193-3.208 4.45 4.45 0 014.628-4.3 4.439 4.439 0 013.107 1.42c.822.864 1.234 2.016 1.193 3.209a4.439 4.439 0 01-1.42 3.106A4.398 4.398 0 014.468 43.2zm-2.283-4.546a2.228 2.228 0 00.617 1.646c.411.452.987.7 1.584.72a2.26 2.26 0 001.645-.617c.453-.412.7-.988.72-1.584.041-1.255-.946-2.325-2.2-2.366-1.256-.041-2.325.946-2.366 2.201z" fill="#232322"/><path fill-rule="evenodd" clip-rule="evenodd" d="M15.802 3.356c-6.85 0-12.425 5.575-12.425 12.425 0 .157.01.312.031.465H5.65a1.164 1.164 0 01-.091-.444c0-5.657 4.608-10.244 10.244-10.244h22.443c5.657 0 10.244 4.607 10.244 10.244 0 .151-.01.299-.03.444h2.19a5.49 5.49 0 00.02-.465c0-6.85-5.574-12.425-12.424-12.425H15.802z" fill="#975295"/><path d="M49.489 18.983a3.374 3.374 0 100-6.747 3.374 3.374 0 000 6.747z" fill="#151514"/><path d="M49.489 20.073h-.165a4.439 4.439 0 01-3.106-1.42 4.431 4.431 0 01-1.193-3.208 4.439 4.439 0 011.42-3.106 4.286 4.286 0 013.208-1.194 4.45 4.45 0 014.3 4.629 4.44 4.44 0 01-1.42 3.106 4.435 4.435 0 01-3.044 1.193zm-.02-6.747c-.577 0-1.132.206-1.564.617-.453.412-.7.987-.72 1.584-.02.617.185 1.193.617 1.646a2.24 2.24 0 001.584.72 2.26 2.26 0 001.646-.617c.452-.412.699-.988.72-1.584.04-1.255-.947-2.325-2.201-2.366h-.083z" fill="#975295"/><path d="M4.467 18.983a3.374 3.374 0 100-6.747 3.374 3.374 0 000 6.747z" fill="#151514"/><path d="M4.467 20.073h-.165a4.439 4.439 0 01-3.106-1.42 4.431 4.431 0 01-1.193-3.208 4.439 4.439 0 011.42-3.106 4.286 4.286 0 013.208-1.194 4.45 4.45 0 014.3 4.629 4.439 4.439 0 01-1.42 3.106 4.435 4.435 0 01-3.044 1.193zm-.02-6.747c-.577 0-1.132.206-1.564.617-.453.412-.7.987-.72 1.584-.02.617.185 1.193.617 1.646.411.452.987.699 1.584.72a2.26 2.26 0 001.645-.617c.453-.412.7-.988.72-1.584.042-1.255-.946-2.325-2.2-2.366h-.083z" fill="#975295"/><path d="M27.21 7.845a3.374 3.374 0 100-6.747 3.374 3.374 0 000 6.747z" fill="#151514"/><path d="M27.21 8.933h-.165a4.439 4.439 0 01-3.106-1.419 4.43 4.43 0 01-1.193-3.209 4.439 4.439 0 011.42-3.106A4.287 4.287 0 0127.373.006a4.45 4.45 0 014.3 4.628 4.439 4.439 0 01-1.42 3.106 4.435 4.435 0 01-3.044 1.193zm-.02-6.747c-.577 0-1.132.206-1.564.617-.453.412-.7.988-.72 1.584-.02.617.185 1.193.617 1.646.411.453.987.7 1.584.72a2.26 2.26 0 001.646-.617c.452-.412.699-.988.72-1.584.04-1.255-.947-2.325-2.201-2.366h-.083z" fill="#975295"/></svg>
